public/img/CATEGORIES_ICONS/ECO_ICON.svg

<?xml version="1.0" encoding="UTF-8"?>
<svg width="87px" height="118px" viewBox="0 0 87 118" version="1.1" xmlns="http://www.w3.org/2000/svg" xmlns:xlink="http://www.w3.org/1999/xlink">
    <!-- Generator: Sketch 42 (36781) - http://www.bohemiancoding.com/sketch -->
    <title>ECO_ICON</title>
    <desc>Created with Sketch.</desc>
    <defs></defs>
    <g id="Page-1" stroke="none" stroke-width="1" fill="none" fill-rule="evenodd">
        <g id="Home" transform="translate(-327.000000, -1067.000000)">
            <g id="CATEGORIES" transform="translate(122.000000, 1066.000000)">
                <g id="ECO_ICON" transform="translate(205.000000, 0.982000)">
                    <polygon id="Fill-163" fill="#00B1B0" points="5.4919 109.0229 10.5889 109.0229 10.5889 110.3549 7.0389 110.3549 7.0389 112.5859 9.9059 112.5859 9.9059 113.9169 7.0389 113.9169 7.0389 116.2079 10.7809 116.2079 10.7809 117.5389 5.4919 117.5389"></polygon>
                    <path d="M16.1335,108.8794 C18.2085,108.8794 19.2765,110.0424 19.2765,110.0424 L18.5325,111.1934 C18.5325,111.1934 17.5605,110.2944 16.2055,110.2944 C14.4065,110.2944 13.3515,111.6384 13.3515,113.2214 C13.3515,114.8404 14.4425,116.2674 16.2175,116.2674 C17.6925,116.2674 18.6885,115.1884 18.6885,115.1884 L19.5035,116.3034 C19.5035,116.3034 18.3285,117.6824 16.1575,117.6824 C13.5545,117.6824 11.7565,115.7514 11.7565,113.2444 C11.7565,110.7744 13.6275,108.8794 16.1335,108.8794" id="Fill-164" fill="#00B1B0"></path>
                    <path d="M24.7014,116.2671 C26.2604,116.2671 27.5074,114.9721 27.5074,113.2211 C27.5074,111.5411 26.2604,110.2941 24.7014,110.2941 C23.1414,110.2941 21.8944,111.5411 21.8944,113.2211 C21.8944,114.9721 23.1414,116.2671 24.7014,116.2671 M24.7014,108.8791 C27.2074,108.8791 29.1024,110.7871 29.1024,113.2211 C29.1024,115.7281 27.2074,117.6821 24.7014,117.6821 C22.1944,117.6821 20.2994,115.7281 20.2994,113.2211 C20.2994,110.7871 22.1944,108.8791 24.7014,108.8791" id="Fill-165" fill="#00B1B0"></path>
                    <polygon id="Fill-166" fill="#00B1B0" points="30.6794 109.0229 32.2264 109.0229 32.2264 116.2079 35.9084 116.2079 35.9084 117.5389 30.6794 117.5389"></polygon>
                    <path d="M40.8176,116.2671 C42.3766,116.2671 43.6236,114.9721 43.6236,113.2211 C43.6236,111.5411 42.3766,110.2941 40.8176,110.2941 C39.2576,110.2941 38.0106,111.5411 38.0106,113.2211 C38.0106,114.9721 39.2576,116.2671 40.8176,116.2671 M40.8176,108.8791 C43.3236,108.8791 45.2186,110.7871 45.2186,113.2211 C45.2186,115.7281 43.3236,117.6821 40.8176,117.6821 C38.3106,117.6821 36.4156,115.7281 36.4156,113.2211 C36.4156,110.7871 38.3106,108.8791 40.8176,108.8791" id="Fill-167" fill="#00B1B0"></path>
                    <path d="M50.6096,108.8794 C52.6956,108.8794 53.7756,109.9584 53.7756,109.9584 L53.0076,111.1094 C53.0076,111.1094 52.0966,110.2944 50.7416,110.2944 C48.8346,110.2944 47.8146,111.6134 47.8146,113.2214 C47.8146,115.0674 49.0746,116.2674 50.6696,116.2674 C51.9526,116.2674 52.8036,115.3794 52.8036,115.3794 L52.8036,114.3844 L51.4966,114.3844 L51.4966,113.0534 L54.1956,113.0534 L54.1956,117.5384 L52.8766,117.5384 L52.8766,117.1304 C52.8766,116.9504 52.8876,116.7714 52.8876,116.7714 L52.8636,116.7714 C52.8636,116.7714 51.9766,117.6824 50.3936,117.6824 C48.1506,117.6824 46.2196,115.9434 46.2196,113.2694 C46.2196,110.7984 48.0786,108.8794 50.6096,108.8794" id="Fill-168" fill="#00B1B0"></path>
                    <polygon id="Fill-169" fill="#00B1B0" points="55.916 117.539 57.463 117.539 57.463 109.023 55.916 109.023"></polygon>
                    <path d="M63.4133,108.8794 C65.4883,108.8794 66.5563,110.0424 66.5563,110.0424 L65.8123,111.1934 C65.8123,111.1934 64.8403,110.2944 63.4853,110.2944 C61.6863,110.2944 60.6313,111.6384 60.6313,113.2214 C60.6313,114.8404 61.7223,116.2674 63.4973,116.2674 C64.9733,116.2674 65.9683,115.1884 65.9683,115.1884 L66.7833,116.3034 C66.7833,116.3034 65.6083,117.6824 63.4373,117.6824 C60.8343,117.6824 59.0363,115.7514 59.0363,113.2444 C59.0363,110.7744 60.9073,108.8794 63.4133,108.8794" id="Fill-170" fill="#00B1B0"></path>
                    <path d="M70.9499,110.4985 C70.9499,110.4985 70.7579,111.3385 70.5899,111.8175 L69.8349,114.0965 L72.0649,114.0965 L71.3099,111.8175 C71.1539,111.3385 70.9739,110.4985 70.9739,110.4985 L70.9499,110.4985 Z M72.4489,115.3555 L69.4629,115.3555 L68.7429,117.5385 L67.1479,117.5385 L70.1459,109.0225 L71.7649,109.0225 L74.7639,117.5385 L73.1689,117.5385 L72.4489,115.3555 Z" id="Fill-171" fill="#00B1B0"></path>
                    <polygon id="Fill-172" fill="#00B1B0" points="75.8596 109.0229 77.4066 109.0229 77.4066 116.2079 81.0886 116.2079 81.0886 117.5389 75.8596 117.5389"></polygon>
                    <polygon id="Fill-173" fill="#00B1B0" points="0.1487 25.2367 43.3487 0.2957 86.5487 25.2367 86.5487 75.1197 43.3487 100.0617 0.1487 75.1197"></polygon>
                    <path d="M30.9804,78.51 C30.6944,78.354 30.5034,78.111 30.4354,77.803 C30.2414,76.933 29.9854,76.064 29.9084,75.181 C29.7714,73.581 29.7004,71.971 29.6834,70.364 C29.6544,67.554 29.9704,64.774 30.5854,62.03 C31.2364,59.12 32.1674,56.305 33.5174,53.64 C34.7654,51.176 36.4274,49.057 38.7234,47.469 C40.8444,46.002 43.1904,45.065 45.6794,44.451 C47.3784,44.032 49.1014,43.75 50.8384,43.548 C52.7304,43.328 54.6264,43.129 56.5174,42.897 C59.2074,42.567 61.8834,42.142 64.4384,41.198 C65.4224,40.835 66.3654,40.361 67.3234,39.93 C67.7394,39.743 68.1704,39.859 68.3244,40.255 C68.3894,40.421 68.4044,40.638 68.3594,40.811 C67.5944,43.765 66.8314,46.72 66.0374,49.667 C65.1164,53.085 63.6584,56.25 61.4834,59.061 C59.0094,62.257 55.9204,64.628 52.0874,65.982 C50.6794,66.48 49.2204,66.785 47.7444,66.998 C45.3434,67.344 42.9344,67.646 40.5354,68.005 C39.0184,68.232 37.5404,68.632 36.1124,69.203 C35.9514,69.267 35.7854,69.324 35.6174,69.364 C35.0084,69.508 34.5724,69.207 34.4694,68.589 C34.3704,67.991 34.4864,67.416 34.6504,66.849 C35.1264,65.201 35.9814,63.75 37.0174,62.4 C38.6134,60.321 40.5664,58.669 42.9354,57.528 C44.1134,56.96 45.2984,56.408 46.4804,55.848 C46.5174,55.831 46.5564,55.815 46.5934,55.798 C46.7374,55.73 46.8694,55.647 46.7954,55.459 C46.7254,55.283 46.5894,55.28 46.4244,55.331 C45.8004,55.525 45.1714,55.703 44.5484,55.9 C42.7784,56.461 41.0474,57.117 39.4274,58.04 C36.8074,59.534 34.7094,61.543 33.3464,64.261 C32.5114,65.927 31.9504,67.691 31.5754,69.515 C31.2674,71.014 31.1264,72.528 31.1724,74.06 C31.2094,75.258 31.3784,76.435 31.6914,77.591 C31.8264,78.091 31.7684,78.243 31.3294,78.51 L30.9804,78.51 Z" id="Fill-174" fill="#FEFEFE"></path>
                    <path d="M21.02,29.7539 C22.512,30.5999 24.105,31.1929 25.754,31.6449 C27.118,32.0189 28.516,32.1709 29.92,32.3009 C32.575,32.5469 35.239,32.7399 37.846,33.3449 C42.424,34.4079 46.341,36.6569 49.61,40.0219 C50.195,40.6239 50.658,41.3449 51.175,42.0129 C51.224,42.0759 51.255,42.1519 51.286,42.2069 C49.949,42.4189 48.624,42.6169 47.304,42.8429 C45.957,43.0729 44.635,43.4149 43.334,43.8369 C43.241,43.8669 43.096,43.8639 43.021,43.8119 C41.396,42.6669 39.57,42.0439 37.63,41.7029 C36.817,41.5599 36.009,41.3869 35.124,41.2119 C37.336,42.2939 39.586,43.1389 41.623,44.4399 C40.95,44.7789 40.301,45.0849 39.671,45.4259 C37.35,46.6859 35.416,48.3849 33.921,50.5679 C33.771,50.7869 33.651,50.8609 33.368,50.7899 C31.81,50.3999 30.45,49.6279 29.196,48.6559 C26.992,46.9479 25.384,44.7539 24.07,42.3219 C22.876,40.1099 22.161,37.7309 21.569,35.3039 C21.189,33.7449 20.774,32.1949 20.368,30.6419 C20.248,30.1859 20.292,30.0289 20.671,29.7539 L21.02,29.7539 Z" id="Fill-175" fill="#FEFEFE"></path>
                </g>
            </g>
        </g>
    </g>
</svg>

<svg width="87" height="118" viewBox="0 0 87 118" xmlns="http://www.w3.org/2000/svg"><title>ECO_ICON</title><g fill="none" fill-rule="evenodd"><path fill="#00B1B0" d="M5.492 109.005h5.097v1.332h-3.55v2.23h2.867v1.332H7.039v2.29h3.742v1.332H5.49zM16.134 108.861c2.075 0 3.142 1.163 3.142 1.163l-.744 1.151s-.971-.899-2.326-.899c-1.8 0-2.854 1.344-2.854 2.927 0 1.62 1.09 3.046 2.866 3.046 1.474 0 2.47-1.079 2.47-1.079l.816 1.115s-1.176 1.38-3.347 1.38c-2.602 0-4.4-1.932-4.4-4.439 0-2.47 1.87-4.365 4.377-4.365M24.701 116.25c1.56 0 2.806-1.296 2.806-3.047 0-1.68-1.247-2.927-2.806-2.927-1.56 0-2.807 1.247-2.807 2.927 0 1.751 1.247 3.046 2.807 3.046m0-7.388c2.506 0 4.401 1.908 4.401 4.342 0 2.507-1.895 4.461-4.4 4.461-2.508 0-4.403-1.954-4.403-4.46 0-2.435 1.895-4.343 4.402-4.343M30.68 109.005h1.546v7.185h3.682v1.33H30.68zM40.818 116.25c1.559 0 2.806-1.296 2.806-3.047 0-1.68-1.247-2.927-2.806-2.927-1.56 0-2.807 1.247-2.807 2.927 0 1.751 1.247 3.046 2.807 3.046m0-7.388c2.506 0 4.4 1.908 4.4 4.342 0 2.507-1.894 4.461-4.4 4.461-2.507 0-4.402-1.954-4.402-4.46 0-2.435 1.895-4.343 4.402-4.343M50.61 108.861c2.086 0 3.166 1.08 3.166 1.08l-.768 1.15s-.911-.815-2.266-.815c-1.907 0-2.927 1.32-2.927 2.927 0 1.846 1.26 3.046 2.855 3.046 1.283 0 2.134-.888 2.134-.888v-.995h-1.307v-1.33h2.699v4.484h-1.32v-.408c0-.18.012-.359.012-.359h-.024s-.887.911-2.47.911c-2.243 0-4.174-1.739-4.174-4.413 0-2.47 1.859-4.39 4.39-4.39M55.916 117.521h1.547v-8.516h-1.547zM63.413 108.861c2.075 0 3.143 1.163 3.143 1.163l-.744 1.151s-.972-.899-2.327-.899c-1.799 0-2.854 1.344-2.854 2.927 0 1.62 1.091 3.046 2.866 3.046 1.476 0 2.471-1.079 2.471-1.079l.815 1.115s-1.175 1.38-3.346 1.38c-2.603 0-4.4-1.932-4.4-4.439 0-2.47 1.87-4.365 4.376-4.365M70.95 110.48s-.192.84-.36 1.32l-.755 2.279h2.23l-.755-2.28c-.156-.479-.336-1.319-.336-1.319h-.024zm1.499 4.858h-2.986l-.72 2.183h-1.595l2.998-8.517h1.619l2.999 8.516h-1.595l-.72-2.182zM75.86 109.005h1.547v7.185h3.682v1.33h-5.23zM.149 25.219L43.349.278l43.2 24.94v49.884l-43.2 24.942-43.2-24.942z"/><path d="M30.98 78.492a1.05 1.05 0 0 1-.545-.707c-.194-.87-.45-1.739-.527-2.622-.137-1.6-.208-3.21-.225-4.817-.029-2.81.287-5.59.902-8.334.651-2.91 1.582-5.725 2.932-8.39 1.248-2.464 2.91-4.583 5.206-6.171 2.121-1.467 4.467-2.404 6.956-3.018 1.7-.419 3.422-.701 5.16-.903 1.891-.22 3.787-.419 5.678-.651 2.69-.33 5.366-.755 7.921-1.699.984-.363 1.927-.837 2.885-1.268.416-.187.847-.071 1.001.325a.96.96 0 0 1 .035.556c-.765 2.954-1.528 5.909-2.322 8.856-.92 3.418-2.379 6.583-4.554 9.394-2.474 3.196-5.563 5.567-9.396 6.921-1.408.498-2.867.803-4.343 1.016-2.4.346-4.81.648-7.209 1.007a19.766 19.766 0 0 0-4.423 1.198 3.619 3.619 0 0 1-.495.161c-.609.144-1.045-.157-1.148-.775-.099-.598.017-1.173.181-1.74.476-1.648 1.331-3.099 2.367-4.449 1.596-2.079 3.55-3.731 5.918-4.872 1.178-.568 2.363-1.12 3.545-1.68l.113-.05c.144-.068.276-.151.202-.339-.07-.176-.206-.179-.37-.128-.625.194-1.254.372-1.877.569-1.77.561-3.5 1.217-5.12 2.14-2.62 1.494-4.719 3.503-6.082 6.221-.835 1.666-1.396 3.43-1.77 5.254a19.586 19.586 0 0 0-.404 4.545 15.26 15.26 0 0 0 .52 3.531c.134.5.076.652-.363.919h-.349z" fill="#FEFEFE"/><path d="M21.02 29.736c1.492.846 3.085 1.439 4.734 1.89 1.364.375 2.762.527 4.166.657 2.655.246 5.319.439 7.926 1.044 4.578 1.063 8.495 3.312 11.764 6.677.585.602 1.048 1.323 1.565 1.99.049.064.08.14.111.195-1.337.212-2.662.41-3.982.636-1.347.23-2.669.572-3.97.994-.093.03-.238.027-.313-.025-1.625-1.145-3.451-1.768-5.391-2.11-.813-.142-1.621-.315-2.506-.49 2.212 1.082 4.462 1.927 6.499 3.228-.673.339-1.322.645-1.952.986-2.321 1.26-4.255 2.959-5.75 5.142-.15.219-.27.293-.553.222-1.558-.39-2.918-1.162-4.172-2.134-2.204-1.708-3.812-3.902-5.126-6.334-1.194-2.212-1.909-4.591-2.501-7.018-.38-1.56-.795-3.11-1.201-4.662-.12-.456-.076-.613.303-.888h.349z" fill="#FEFEFE"/></g></svg>
